!!!!SEGMENT: pl-sa--l-1643--064_anonim--princeps-gloriosissime.krn
!!!cenid: 16xx:1426
!!!COM: Anonim
!!!COM-rismID: pe30004985
!!!CDT:
!!!CNT:
!!!OTL: Princeps gloriosissime
!!!PDT:
!!!AGN: Sacred
!!!SMS-siglum: PL-SA
!!!SMS-shelfmark: L 1643
!!!SMS-shelfwork: 064 W
!!!SMS-variant:
!!!SMS-altvar:
!!!NIFC-rismSourceID: 1001064658
!!!NIFC-rismChildID: 1001064658
!!!NIFC-islandoraID:
!!!URL-pdf-islandora:
!!!URL-scan:
!!!IIIF:
!!!ONB-nifc: UWAGA: 8 ksiąg. Primi chori: 1mus Cantus (x), C 2dus (114), C 3tius (41-42), Bassus (x); Secondi chori: Primus Cantus (x), C 2dus (22), Altus (x), Bassus (126-127). UWAGA: Nie dodawać pustych linii, chyba że w rękopisie pojawiają się dodatkowe oznaczenia dotyczące pełnej obsady (a 4, a 8 itp.)
!!!AIN: 4 empty
!!!key:
**kern	**text	**kern	**text	**kern	**text	**kern	**text
*group2	*	*group2	*	*group1	*	*group1	*
*part4	*part4	*part3	*part3	*part2	*part2	*part1	*part1
*staff4	*staff4	*staff3	*staff3	*staff2	*staff2	*staff1	*staff1
*Iempty	*	*Iempty	*	*Iempty	*	*Iempty	*
*I"Bassus 2di Chori	*	*I"Cantus 2dus 2di Chori	*	*I"Cantus 3tius Primi Chori	*	*I"Cantus 2dus Primi Chori	*
*I'[Coro 2 B]	*	*I'[Coro 2 C 2]	*	*I'[Coro 1 C 3]	*	*I'[Coro 1 C 2]	*
*clefC3	*	*clefC1	*	*clefC2	*	*clefC1	*
*k[b-]	*	*k[b-]	*	*k[b-]	*	*k[b-]	*
*g:	*	*g:	*	*g:	*	*g:	*
*M2/2	*	*M2/2	*	*M2/2	*	*M2/2	*
*met(C|)	*	*met(C|)	*	*met(C|)	*	*met(C|)	*
=1-	=1-	=1-	=1-	=1-	=1-	=1-	=1-
0r	.	0r	.	1g	Prin-	1b-	Prin-
=2-	=2-	=2-	=2-	=2-	=2-	=2-	=2-
.	.	.	.	1a	-ceps	1a	-ceps
=3-	=3-	=3-	=3-	=3-	=3-	=3-	=3-
1g	Prin-	1b-	Prin-	2.g\	glo-	2.b-\	glo-
.	.	.	.	4g\	-ri-	4cc\	-ri-
=4-	=4-	=4-	=4-	=4-	=4-	=4-	=4-
2d\	-ceps	2a\	-ceps	1a	-o-	1dd	-o-
4d\	glo-	2dd\	glo-	.	.	.	.
4d\	-ri-	.	.	.	.	.	.
=5-	=5-	=5-	=5-	=5-	=5-	=5-	=5-
1d	-o-	2dd\	-ri-	2.a\	-si-	2.dd\	-ſi-
.	.	2a\	-o-	.	.	.	.
.	.	.	.	4a\	-si-	4dd\	-ssi-
=6-	=6-	=6-	=6-	=6-	=6-	=6-	=6-
2.g\	-ſi-	2.b-\	-si-	1g	-me	1dd,>	-me
4g\	-ſi-	4b-\	-si-	.	.	.	.
=7-	=7-	=7-	=7-	=7-	=7-	=7-	=7-
2c/	-me	2g/	-me	1g	mi-	1cc	Mi-
2c/	Mi-	2cc\	mi-	.	.	.	.
=8-	=8-	=8-	=8-	=8-	=8-	=8-	=8-
1f	-cha-	1cc	-cha-	1a	-cha-	2.a\	-cha-
.	.	.	.	.	.	4b-\	-el
=9-	=9-	=9-	=9-	=9-	=9-	=9-	=9-
2c/	-el	2g/	-[e]l	2g\	-el	2cc\	.
2g\	Ar-	2b-\	Ar-	2g\	ar-	2b-\	ar-
=10-	=10-	=10-	=10-	=10-	=10-	=10-	=10-
2.d\	-chan-	2.dd\	-chan-	2.a\	-chan-	2.a\	-chan-
4d\	-ge-	4dd\	-ge-	4a\	-ge-	4a\	-ge-
*custos:g	*	*	*	*	*	*	*
!LO:LB:g=original	!	!	!	!	!	!	!
=11-	=11-	=11-	=11-	=11-	=11-	=11-	=11-
!	!	!LO:TX:t=P:problem=# below	!	!	!	!LO:TX:t=P:problem=# below	!
!	!	!LO:N:acc=#	!	!	!	!LO:N:acc=#	!
1g	-le	1bn	-le	1g	-le	1bn,>	-le
=12-	=12-	=12-	=12-	=12-	=12-	=12-	=12-
00r	.	00r	.	2.g\	eſ-	2.b-\	eſ-
!	!	!	!	!LO:TX:t=P:problem=# below	!	!	!
.	.	.	.	4f#X\	-to	4a\	-to
=13-	=13-	=13-	=13-	=13-	=13-	=13-	=13-
.	.	.	.	2g\	me-	2b-\	me-
.	.	.	.	2a\	-mor	2cc\	-mor
=14-	=14-	=14-	=14-	=14-	=14-	=14-	=14-
.	.	.	.	1b-	no-	1dd	no-
=15-	=15-	=15-	=15-	=15-	=15-	=15-	=15-
.	.	.	.	1b-	-ſtri,	1dd	-ſtri,
*	*	*	*	*custos:g	*	*	*
!	!	!	!	!LO:LB:g=original	!	!	!
=16-	=16-	=16-	=16-	=16-	=16-	=16-	=16-
2.g\	eſ-	2.b-y\	eſ-	00r	.	00r	.
4d\	-to	4a\	-to	.	.	.	.
=17-	=17-	=17-	=17-	=17-	=17-	=17-	=17-
2g\	me-	2b-\	me-	.	.	.	.
!	!	!LO:N:vis=2.	!	!	!	!	!
2c/	-mor	2cc\	-[m]or	.	.	.	.
=18-	=18-	=18-	=18-	=18-	=18-	=18-	=18-
1B-	no-	1dd	no-	.	.	.	.
=19-	=19-	=19-	=19-	=19-	=19-	=19-	=19-
1B-	-stri	1dd	-ſtri,	.	.	.	.
=20-	=20-	=20-	=20-	=20-	=20-	=20-	=20-
!	!	!	!	!	!	!LO:TX:t=P:problem=kropka w kolejnym systemie	!
0r	.	0r	.	2.g\	eſ-	2.b-\	eſ-
*	*	*	*	*	*	*custos:a	*
!	!	!	!	!	!	!LO:LB:g=original	!
.	.	.	.	4a\	-to	4a\	-to
=21-	=21-	=21-	=21-	=21-	=21-	=21-	=21-
.	.	.	.	2g\	me-	2b-\	me-
.	.	.	.	2g\	-mor	2cc\	-mor
=22-	=22-	=22-	=22-	=22-	=22-	=22-	=22-
!	!	!	!	!LO:TX:t=P:problem=# below	!	!	!
2.d\	eſ-	2.a\	eſ-	1f#X	no-	1a	no-
4d\	-to	4a\	-to	.	.	.	.
*	*	*custos:b-	*	*	*	*	*
!	!	!LO:LB:g=original	!	!	!	!	!
=23-	=23-	=23-	=23-	=23-	=23-	=23-	=23-
2g\	me-	2b-\	me-	2g\	-ſtri	2b-\	-ſtri
2c/	-mor	2cc\	-mor	2r	.	2r	.
=24-	=24-	=24-	=24-	=24-	=24-	=24-	=24-
1d	no-	1a	no-	1r	.	1r	.
=25-	=25-	=25-	=25-	=25-	=25-	=25-	=25-
2G/	-ſtri	2b-\,>	-ſtri	2.g\	eſ-	2.b-\	eſ-
4g\	eſ-	4b-\	eſ-	.	.	.	.
4g\	-to	4b-\	-to	4g\	-to	4b-\	-to
=26-	=26-	=26-	=26-	=26-	=26-	=26-	=26-
2c/	me-	2g/	me-	2g\	me-	2cc\	me-
2g\	-mor	2b-\	-mor	2g\	-mor	4b-\	-mor
.	.	.	.	.	.	4cc\	.
=27-	=27-	=27-	=27-	=27-	=27-	=27-	=27-
1d	no-	1a	no-	1a	no-	1dd	no-
=28-	=28-	=28-	=28-	=28-	=28-	=28-	=28-
!	!	!LO:TX:t=P:problem=kreska pseudotaktowa przerywana	!	!	!	!	!
!	!	!LO:TX:t=P:problem=# below	!	!	!	!LO:TX:t=P:problem=# below	!
!LO:TX:t=P:problem=kreska pseudotaktowa przerywana	!	!LO:N:acc=#	!	!	!	!LO:N:acc=#	!
1g	-stri	1bn	-ſtri	1g	-ſtri	1bn	-ſtri
=29-	=29-	=29-	=29-	=29-	=29-	=29-	=29-
*M3/2	*	*M3/2	*	*M3/2	*	*M3/2	*
1.r	.	1.r	.	2g\	Hic	2cc\	Hic
.	.	.	.	2a\	et	2a\	et
.	.	.	.	2g\	u-	2cc\	u-
=30-	=30-	=30-	=30-	=30-	=30-	=30-	=30-
2g\	Hic	2b-\	Hic	1g	-bi-	1b-	-bi-
*custos:g	*	*	*	*	*	*	*
!LO:LB:g=original	!	!	!	!	!	!	!
2g\	et	2b-\	et	.	.	.	.
2g\	u-	2b-\	u-	2g\,>	-que	2b-\,>	-[q]ue,
=31-	=31-	=31-	=31-	=31-	=31-	=31-	=31-
1c	-bi-	1cc	-bi-	2g\	chic	2cc\	hic
.	.	.	.	2g\	et	2cc\	et
2c/	-que	2g/,>	-que	2g\	u-	2cc\	u-
=32-	=32-	=32-	=32-	=32-	=32-	=32-	=32-
*	*	*	*ij	*	*	*	*
1F	hic	1cc	Hic	1a	-bi	1cc	-bi-
2F/	et	2a\	et	2fny\	que	2cc\	-que,
*	*	*	*	*custos:f	*	*	*
!	!	!	!	!LO:LB:g=original	!	!	!
=33-	=33-	=33-	=33-	=33-	=33-	=33-	=33-
1B-	u-	1b-	u-	2f\	hic	2b-\	hic
*	*	*	*	*	*	*custos:b-	*
!	!	!	!	!	!	!LO:LB:g=original	!
.	.	.	.	2f\	et	2b-\	et
2f\	-bi-	2a\	-bi-	2a\	u-	2cc\	u-
=34-	=34-	=34-	=34-	=34-	=34-	=34-	=34-
1B-	-que	1b-	-que	1f	-bi-	1b-	-bi-
*	*	*	*Xij	*	*	*	*
2r	.	2r	.	2f\	-que	2b-\	-que
=35-	=35-	=35-	=35-	=35-	=35-	=35-	=35-
*M2/2	*	*M2/2	*	*M2/2	*	*M2/2	*
*met(C|)	*	*met(C|)	*	*met(C|)	*	*met(C|)	*
2B-/	Sem-	2b-\	Sem-	1r	.	1r	.
4e-X\	-per	4g/	-per	.	.	.	.
4c/	pre-	4a\	pre-	.	.	.	.
=36-	=36-	=36-	=36-	=36-	=36-	=36-	=36-
2B-/	-ca-	2b-\	-ca-	2r	.	2r	.
2B-/	-re	2b-\	-re	4r	.	4r	.
.	.	.	.	4f\	sem-	4b-\	ſem-
=37-	=37-	=37-	=37-	=37-	=37-	=37-	=37-
1r	.	1r	.	4g\	-per	4g/	-per
.	.	.	.	4e-X/	pre-	4a\	pre-
.	.	.	.	2f\	-ca-	2b-\	-ca-
*	*	*custos:b-	*	*	*	*	*
!	!	!LO:LB:g=original	!	!	!	!	!
=38-	=38-	=38-	=38-	=38-	=38-	=38-	=38-
*	*	*	*ij	*	*	*	*
2B-/	Sem-	2b-\	Sem-	2f\	-re	2b-\	-re,
4e-X\	-per	4g/	-per	2r	.	2r	.
4c/	pre-	4a\	pre-	.	.	.	.
=39-	=39-	=39-	=39-	=39-	=39-	=39-	=39-
2B-/	-ca-	2b-\	-ca-	2r	.	2r	.
2B-/	-re	2b-\	-re	4r	.	4r	.
*	*	*	*Xij	*	*	*	*
.	.	.	.	4b-\	sem-	4dd\	ſem-
=40-	=40-	=40-	=40-	=40-	=40-	=40-	=40-
1r	.	1r	.	4b-\	-per	4b-\	-per
.	.	.	.	4g\	pre-	4cc\	pre-
.	.	.	.	2b-\	-ca-	2dd\	-ca-
=41-	=41-	=41-	=41-	=41-	=41-	=41-	=41-
*	*	*	*ij	*	*	*	*
2B-/	Sem-	2dd\	Sem-	2b-\	-re	2dd\	-re,
4G/	-per	4b-\	-per	2r	.	2r	.
4c/	pre-	4cc\	pre-	.	.	.	.
=42-	=42-	=42-	=42-	=42-	=42-	=42-	=42-
2B-/	-ca-	2dd\	-ca-	2r	.	2r	.
*custos:B-	*	*	*	*	*	*	*
!LO:LB:g=original	!	!	!	!	!	!	!
4B-/	-re	4dd\	-re	4r	.	4r	.
*	*	*	*Xij	*	*	*	*
4r	.	4r	.	4a\	pro	2dd\	pro
=43-	=43-	=43-	=43-	=43-	=43-	=43-	=43-
2r	.	2r	.	2a\	no-	.	.
!	!	!	!	!	!	!LO:TX:t=P:problem=# below	!
.	.	.	.	.	.	4cc#X\	no-
4r	.	4r	.	2a\	-bis	2dd\	-bis,
*	*	*	*ij	*	*	*	*
4B-/	Sem-	4b-\	Sem-	.	.	.	.
=44-	=44-	=44-	=44-	=44-	=44-	=44-	=44-
4G/	-per	4dd\	-per	1r	.	1r	.
4A/	pre-	4cc\	pre-	.	.	.	.
2B-/	-ca-	2b-\	-ca-	.	.	.	.
=45-	=45-	=45-	=45-	=45-	=45-	=45-	=45-
2B-/	-re	2b-\	-re	4r	.	4r	.
*	*	*	*Xij	*	*	*	*
.	.	.	.	4f\	pro	4b-\	pro
*	*	*	*	*custos:f	*	*	*
!	!	!	!	!LO:PB:g=original	!	!	!
2r	.	2r	.	2f\	no-	2a\	no-
*	*	*	*	*	*	*custos:b-	*
!	!	!	!	!	!	!LO:LB:g=original	!
=46-	=46-	=46-	=46-	=46-	=46-	=46-	=46-
4r	.	4r	.	2f\	-bis	2b-\	-bis,
*	*	*	*ij	*	*	*	*
4d\	Sem-	4dd\	Sem-	.	.	.	.
4c/	-per	4ee\	-per	2r	.	2r	.
4A/	pre-	4ee\	pre-	.	.	.	.
=47-	=47-	=47-	=47-	=47-	=47-	=47-	=47-
2B-/	-ca-	2dd\	-ca-	2r	.	2r	.
2c/	-re	2cc\	-re	4r	.	4r	.
*	*	*	*Xij	*	*	*	*
.	.	.	.	4cc\	pro	4ee-X\	pro
=48-	=48-	=48-	=48-	=48-	=48-	=48-	=48-
2r	.	2r	.	2a\	no-	2dd\	no-
4r	.	4r	.	2b-\	-bis	2dd\	-bis,
4g\	pro	4b-\	pro	.	.	.	.
=49-	=49-	=49-	=49-	=49-	=49-	=49-	=49-
2d\	no-	2a\	no-	2r	.	2r	.
2g\	-bis	2b-\	-bis	4r	.	4r	.
.	.	.	.	4g\	pro	4b-\	pro
=50-	=50-	=50-	=50-	=50-	=50-	=50-	=50-
2r	.	2r	.	2a\	no-	2ccny\	no-
4r	.	4r	.	2b-\	-bis	2dd\	-bis,
*	*	*	*ij	*	*	*	*
4d\	pro	4a\	pro	.	.	.	.
=51-	=51-	=51-	=51-	=51-	=51-	=51-	=51-
2A/	no-	2a\	no-	2r	.	2r	.
4d\	-bis	4a\	-bis	4r	.	4r	.
*	*	*	*Xij	*	*	*	*
*	*	*	*ij	*	*	*	*
4g\	pro	4b-\	pro	4g\	pro	4dd\	pro
=52-	=52-	=52-	=52-	=52-	=52-	=52-	=52-
1d	no-	1a	no-	1a	no-	1dd	no-
=53-	=53-	=53-	=53-	=53-	=53-	=53-	=53-
!	!	!	!	!	!	!LO:TX:t=P:problem=# below	!
!	!	!	!	!	!	!LO:N:acc=#	!
2g\	-bis	2b-\	-bis	2g\	-bis	2bn\	-bis
*	*	*	*Xij	*	*	*	*
*custos:c	*	*custos:cc	*	*	*	*	*
!LO:PB:g=original	!	!LO:LB:g=original	!	!	!	!	!
2.c/	fi-	2.cc\	fi-	2.g\	fi-	2.cc\	fi-
=54-	=54-	=54-	=54-	=54-	=54-	=54-	=54-
4c/	-li-	4g/	-li-	4g\	-li-	4cc\	-li-
2g\	-um	2b-\	-um	2g\	-um	2b-y\	-um
=55-	=55-	=55-	=55-	=55-	=55-	=55-	=55-
1d	De-	1a	de-	1a	de-	1dd	de-
=56-	=56-	=56-	=56-	=56-	=56-	=56-	=56-
*M3/2	*	*M3/2	*	*M3/2	*	*M3/2	*
!	!	!LO:TX:t=P:problem=# below	!	!	!	!	!
!	!	!LO:N:acc=#	!	!	!	!	!
1g	-i	1bn	-i	2g\	-i	2b-\,>	-i,
.	.	.	.	2g\	Al-	2dd\	Al-
2r	.	2r	.	2a\	-le	2dd\	-le-
=57-	=57-	=57-	=57-	=57-	=57-	=57-	=57-
0.r	.	0.r	.	1b-	lu-	2.b-\	-lu-
.	.	.	.	.	.	4cc\	-ia,
*	*	*	*	*custos:b-	*	*	*
!	!	!	!	!LO:LB:g=original	!	!	!
.	.	.	.	2b-\	-ia	2dd\,>	.
=58-	=58-	=58-	=58-	=58-	=58-	=58-	=58-
.	.	.	.	2g\	al-	2b-\	al-
.	.	.	.	2b-\	-le-	2b-\	-le-
*	*	*	*	*	*	*custos:cc	*
!`	!	!	!	!	!	!	!
.	.	.	.	2a\	-lu-	2cc\	-lu-
=59-	=59-	=59-	=59-	=59-	=59-	=59-	=59-
2r	.	2r	.	1b-	-ia	1b-	-ia,
2B-/	Al-	2b-y\	Al-	.	.	.	.
2f\	-le-	2a\	-le-	2r	.	2r	.
=60-	=60-	=60-	=60-	=60-	=60-	=60-	=60-
1g	-lu-	1g	-lu-	0.r	.	0.r	.
2d\	-ia	2f/,>	-ia,	.	.	.	.
=61-	=61-	=61-	=61-	=61-	=61-	=61-	=61-
2B-/	Al-	2g/	al-	.	.	.	.
2B-/	-le-	2b-\	-le-	.	.	.	.
2F/	-lu-	2a\	-lu-	.	.	.	.
=62-	=62-	=62-	=62-	=62-	=62-	=62-	=62-
*M2/2	*	*M2/2	*	*M2/2	*	*M2/2	*
*met(C|)	*	*met(C|)	*	*met(C|)	*	*met(C|)	*
2B-/,>	-ia	2b-\,>	-ia	2r	.	2r	.
*	*	*	*ij	*	*	*	*
2g\	Al-	2b-\	al-	2g\	Al-	2b-\	Al-
=63-	=63-	=63-	=63-	=63-	=63-	=63-	=63-
1.c	-le-	4a\	-le-	1.g	-le-	1.g	-le-
.	.	4b-\	-lu-	.	.	.	.
.	.	4cc\,>	-ia	.	.	.	.
*	*	*	*Xij	*	*	*	*
.	.	4b-\	Al-	.	.	.	.
=64-	=64-	=64-	=64-	=64-	=64-	=64-	=64-
.	.	2g/	-le-	.	.	.	.
!LO:TX:t=P:problem=kreska pseudotaktowa przerywana	!	!	!	!	!LO:TX:t=P:problem=nuta słabo widoczna	!	!
2c/	-lu-	2cc\	-lu-	2g\	-lu-	2cc\	-lu-
=65-	=65-	=65-	=65-	=65-	=65-	=65-	=65-
!	!	!LO:N:acc=#	!	!	!	!LO:N:acc=#	!
0g;;	-ia-	0bn;<	-ia-	0g;;	-ia,-	0bn;;	-ia,-
=-	=-	=-	=-	=-	=-	=-	=-
*-	*-	*-	*-	*-	*-	*-	*-
!!!system-decoration: [(g1)],[(g2)]
!!!RDF**kern: > = above
!!!RDF**kern: < = below
!!!ENC: Anastazja Marusiak
!!!END: 2021-10-08
!!!EED: Jędrzej Mróz
!!!ESR: 2021-10-20
!!!YEC: Copyright 2022 Narodowy Instytut Fryderyka Chopina (https://polishscores.org)
!!!YEM: License CC-BY-4.0 (https://creativecommons.org/licenses/by/4.0)
